X:15997
T:Stensele polska
R:Polska
O:Sweden
M:3/4
L:1/16
A:W\"asterbotten
K:Gm
D2|\
D2B2 B2AB cBAG|F2A2 A2GA BAGF|\
E2EF G2GA B2AG|^FGAF G2D2 B,CB,A,|
G,2B2 B2AB cBAG|F2A2 A2GA BAGF|\
E2EF G2GA B2AG|^FGAF G6::
D2d2 d2^cd e2d2|D2c2 c2Bc dcBA|\
G^FGA BABc d2d2|^c2Ac d4|
D2d2 d2^cd e2d2|D2c2 c2Bc dcBA|\
G^FGA BABc d^cde|d2^F2 G4:|


